!!!OTL: WAS WOELLN WIR AUF DEN ABEND THUN
!!!ARE: Europa, Mitteleuropa, Deutschland
!!!SCT: E1120
!!!YEM: Copyright 1995, estate of Helmut Schaffrath.
**kern
*ICvox
*Ivox
*M4/4
*k[f#]
*G:
{4g
=1
4g
4g
4a
4a
=2
4b
8a
8g
2a}
=3
{4b
4g
4f#
8g
8a
=4
2.g
4r}
=5
{4cc
4cc
4a
4a
=6
4b
8a
8g
4a}
{4a
=7
4cc
4cc
4a
4a
=8
4b
8a
8g
2a}
=9
{4b
4g
4f#
8g
8a
=10
2.g}
==
!!!AGN: Trink -, Zech - Lied
!!!ONB: ESAC (Essen Associative Code) Database: ERK3
!!!AMT: simple quadruple
!!!AIN: vox
!!!EED: Helmut Schaffrath
!!!EEV: 1.0
*-
